X: 12
T: The Humours Of Trim
R: jig
M: 6/8
L: 1/8
K: Gmaj
|:BAB G3|G2g fdc|BF/G/B G3|d2B cBA|
BF/G/B G3|G2g fdc|BF/G/B cBc|d2B cBA:||
|:G2g fdg|fdg fdc|B2g fdc|BF/G/B cBA|
G2g fdg|bag fdc|BF/G/B cBc|d2B cBA|
G2g fdg|fdc ABc|B2g fdc|dB/c/d cBA|
G2g fdg|bag fdc|BF/G/B cBc|dB/c/d cBA||


Tune 88	Setting 26362

